src/assets/images/download.svg

<svg width="39" height="39" viewBox="0 0 39 39" fill="none" xmlns="http://www.w3.org/2000/svg">
<path d="M19.5 26L11.375 17.875L13.65 15.5188L17.875 19.7438V6.5H21.125V19.7438L25.35 15.5188L27.625 17.875L19.5 26ZM9.75 32.5C8.85625 32.5 8.09115 32.1818 7.45469 31.5453C6.81823 30.9089 6.5 30.1437 6.5 29.25V24.375H9.75V29.25H29.25V24.375H32.5V29.25C32.5 30.1437 32.1818 30.9089 31.5453 31.5453C30.9089 32.1818 30.1437 32.5 29.25 32.5H9.75Z" fill="#C2262D"/>
</svg>

<?xml version="1.0" encoding="UTF-8"?>
<svg id="Layer_1" data-name="Layer 1" xmlns="http://www.w3.org/2000/svg" version="1.1" viewBox="0 0 39 39">
  <defs>
    <style>
      .cls-1 {
        fill: #a01713;
        stroke-width: 0px;
      }
    </style>
  </defs>
  <path class="cls-1" d="M19.5,26l-8.1-8.1,2.3-2.4,4.2,4.2V6.5h3.2v13.2l4.2-4.2,2.3,2.4-8.1,8.1ZM9.8,32.5c-.9,0-1.7-.3-2.3-1-.6-.6-1-1.4-1-2.3v-4.9h3.2v4.9h19.5v-4.9h3.2v4.9c0,.9-.3,1.7-1,2.3-.6.6-1.4,1-2.3,1H9.8Z"/>
</svg>
